!!!COM: Charles Gounod
!!!CNT: Francais
!!!TXO: Francais
!!!OTL: "Si la mort est le but"
!!!LYR: Bertin
!!!OPR: 
!!!OPS: Op. 
!!!ONM: No.
!!!ENC: Emily Thomas
!!!YOR: CD Sheet Music French Art Songs, The Ultimate Collection
!!!YOR: CD Sheet Music, LLC 2003
!!!ODT: 1866/
!!NB: Vocal melody and text encoded.
**kern	**silbe
=1	=1
*clefG2	*
*k[b-]	*
*M3/4	*
*MM[Moderato]	*
2.r	.
=2	=2
2.r	.
=3	=3
2.r	.
=4	=4
{8.a	{Si
16a	la
4a	mort
8.a	est
16a	le
=5	=5
[4b-	but
8b-]}	|}
8r	.
4r	.
=6	=6
{8.bn	{pour-
16bn	-quoi
4ff	donc
8ee	sur
8dd	les
=7	=7
4dd	rou-
4cc}	-tes}
8r	.
{8cc	{Est-
=8	=8
4.dd	-il
8dd	dans
8ee	les
8ff	buis-
=9	=9
[4gg	-sons
8gg]}	|}
8r	.
{4cc	{de
=10	=10
8bn	si
8ee	char-
4.dd	-man-
8cc	-tes
=11	=11
[4cc	fleurs
8cc]}	|}
8r	.
4r	.
=12	=12
{4cc	{Et
8cc	lors-
8cc	-qu'au
8dd-	vent
8ee-	d'au-
=13	=13
2cc	-tom-
4cc}	-ne}
=14	=14
{4cc	{El-
8cc	-les
8cc	s'en-
8dd-	-vol-
8ee-	-ent
=15	=15
4ff	tou-
4ff}	-tes}
8r	.
{8ff	{Pour-
=16	=16
4.gg	-quoi
8ff	les
8ee-	voir
8dd-	par-
=17	=17
[4cc	-tir
8cc]}	|}
8r	.
{4cc	{D'un
=18	=18
4.ee-	oeil
8dd-	mou-
8cc	-ille/
8b-	de
=19	=19
[4a-	pleurs?
8a-]}	|}
8r	.
{4a-	{Pour-
=20	=20
4.cc	-quoi
8b-	les
8a-	voir
8g-	par-
=21	=21
[4f	-tir
8f]}	|}
8r	.
{4f	{D'un
=22	=22
8f	oeil
8en	mou-
4.cc	-ille/
8e	de
=23	=23
[4f	pleurs?.
8f]}	|}
8r	.
4r	.
=24	=24
2.r	.
=25	=25
2.r	.
=26	=26
{8.a	{Si
16a	la
4a	vie
8.a	est
16a	le
=27	=27
[4b-	-but
8b-]}	|}
8r	.
4r	.
=28	=28
{8.bn	{Pour-
16bn	-quoi
4ff	donc
8ee	sur
8dd	les
=29	=29
4dd	rou-
4cc}	-tes}
4r	.
=30	=30
{8dd	{tant
8dd	de
4dd	pier-
8ee	-res
8ff	dans
=31	=31
4gg	l'her-
8gg}	-be}
8r	.
{8cc	{et
8dd	d'e/-
=32	=32
8cc	-pi-
8bn	|
4.ee	-nes
8dd	aux
=33	=33
[4cc	fleurs
8cc]}	|}
8r	.
4r	.
=34	=34
{8cc	{Que
8cc	pen-
4cc	-dant
8dd-	le
8ee-	voy-
=35	=35
4cc	-a-
4cc}	-ge,}
8r	.
{8cc	{he/-
=36	=36
[4cc	-las
8cc]	|
8cc	nous
8dd-	de-
8ee-	-vons
=37	=37
4ff	tou-
4ff}	-tes}
8r	.
{8ff	{Ta-
=38	=38
4.gg	-cher
8ff	de
8ee-	no-
8dd-	-tre
=39	=39
[4cc	sang
8cc]}	|}
8r	.
{8.cc	{ou
16cc	mou-
=40	=40
4.ee-	-iller
8dd-	|
8cc	de
8b-	nos
=41	=41
[4a-	pleurs
8a-]}	|}
8r	.
{4a-	{Ta-
=42	=42
4.cc	-cher
8b-	de
8a-	not-
8g-	-re
=43	=43
[4f	sang
8f]}	|}
8r	.
{8.f	{ou
16f	mou-
=44	=44
8f	-iller
8en	|
4.cc	de
8e	nos
=45	=45
[4f	pleurs!
8f]}	|}
8r	.
4r	.
=46	=46
{8.a	{Mais
16a	le
4a	ciel
8.a	est
16a	le
=47	=47
[4b-	but!
8b-]}	|}
8r	.
4r	.
=48	=48
{4bn	{sur
8ff	les
8ff	di-
8.ee	-vi-
16dd	-nes
=49	=49
4dd	rou-
8cc}	-tes}
8r	.
{8.cc	{L'es-
16cc	-pe/-
=50	=50
2dd	-rance
8ee	et
8ff	la
=51=	51
[4gg	foi
8gg]}	|}
8r	.
{8cc	{se\-
8dd	-ment
=52	=52
8cc	pal-
8bn	|
4.ee	-mes
8dd	et
=53	=53
[4cc	fleurs!
8cc]}	|}
8r	.
8r	.
{8cc	{A-
=54	=54
4.cc	-vant
8cc	le
8dd-	jour
8ee-	fa-
=55	=55
[4cc	-tal
8cc]}	|}
8r	.
8r	.
{8cc	{sa-
=56	=56
4.cc	-chons
8cc	les
8dd-	cuei-
8ee-	-llir
=57	=57
[2ff	tou-
8ff]}	-tes}
8r	.
=58	=58
{4gg	Et
8gg	l'e/-
8ff	-ter-
8ee-	-nel
8dd-	a-
=59	=59
[4cc	-mour
8cc]}	|}
8r	.
{4cc	{vien-
=60	=60
4.ee-	-dra
8dd-	se/-
8cc	-cher
8b-	nos
=61	=61
[2a-	pleurs!
8a-]}	|}
8r	.
=62	=62
{4cc	{Et
8cc	l'e/-
8b-	-ter-
8a-	-nel
8g-	a-
=63	=63
[4f	-mour
8f]}	|}
8r	.
{4f	{vien-
=64	=64
8.f	-dra
16en	se/-
4.cc	-cher
8e	nos
=65	=65
[4f	pleurs!
8f]}	|}
8r	.
4r	.
==	==
*-	*-
